icons/mars.svg

<?xml version="1.0" standalone="no"?><!-- Generator: Gravit.io --><svg xmlns="http://www.w3.org/2000/svg" xmlns:xlink="http://www.w3.org/1999/xlink" width="96" height="96"><path d=" M 62.52671991522 27.87328008478 L 78.4 12 L 72 12 C 70.9 12 69.9 11.600000000000001 69.2 10.8 C 68.4 10.100000000000001 68 9.100000000000001 68 8 C 68 6.9 68.4 5.9 69.2 5.199999999999999 C 69.9 4.4 70.9 4 72 4 L 84 4 C 86.1 4 88.2 4.800000000000001 89.7 6.300000000000001 C 91.2 7.800000000000001 92 9.899999999999999 92 12 L 92 24 C 92 25.1 91.6 26.1 90.8 26.799999999999997 C 90.1 27.6 89.1 28 88 28 C 86.9 28 85.9 27.6 85.2 26.799999999999997 C 84.4 26.1 84 25.1 84 24 L 84 17.6 L 68.12671991522001 33.47328008478 C 73.18421608882495 39.86688765087382 76 47.82229446052211 76 56 C 76 65.5 72.2 74.7 65.5 81.5 C 58.7 88.2 49.5 92 40 92 C 30.5 92 21.3 88.2 14.5 81.5 C 7.8 74.7 4 65.5 4 56 L 4 56 C 4 46.5 7.8 37.3 14.5 30.5 C 21.3 23.8 30.5 20 40 20 C 48.17770553947789 20 56.13311234912618 22.81578391117505 62.52671991522 27.87328008478 Z  M 12 56 C 12 48.6 15 41.5 20.2 36.2 C 25.5 31 32.6 28 40 28 C 47.4 28 54.5 31 59.8 36.2 C 65 41.5 68 48.6 68 56 C 68 63.400000000000006 65 70.5 59.8 75.8 C 54.5 81 47.4 84 40 84 C 32.6 84 25.5 81 20.2 75.8 C 15 70.5 12 63.400000000000006 12 56 L 12 56 Z " fill-rule="evenodd" fill="#454545" stroke="none"/><mask id="_mask_ZBDwiDh4G7QezcKfhCWHMRTiABUFORGo"><path d=" M 62.52671991522 27.87328008478 L 78.4 12 L 72 12 C 70.9 12 69.9 11.600000000000001 69.2 10.8 C 68.4 10.100000000000001 68 9.100000000000001 68 8 C 68 6.9 68.4 5.9 69.2 5.199999999999999 C 69.9 4.4 70.9 4 72 4 L 84 4 C 86.1 4 88.2 4.800000000000001 89.7 6.300000000000001 C 91.2 7.800000000000001 92 9.899999999999999 92 12 L 92 24 C 92 25.1 91.6 26.1 90.8 26.799999999999997 C 90.1 27.6 89.1 28 88 28 C 86.9 28 85.9 27.6 85.2 26.799999999999997 C 84.4 26.1 84 25.1 84 24 L 84 17.6 L 68.12671991522001 33.47328008478 C 73.18421608882495 39.86688765087382 76 47.82229446052211 76 56 C 76 65.5 72.2 74.7 65.5 81.5 C 58.7 88.2 49.5 92 40 92 C 30.5 92 21.3 88.2 14.5 81.5 C 7.8 74.7 4 65.5 4 56 L 4 56 C 4 46.5 7.8 37.3 14.5 30.5 C 21.3 23.8 30.5 20 40 20 C 48.17770553947789 20 56.13311234912618 22.81578391117505 62.52671991522 27.87328008478 Z  M 12 56 C 12 48.6 15 41.5 20.2 36.2 C 25.5 31 32.6 28 40 28 C 47.4 28 54.5 31 59.8 36.2 C 65 41.5 68 48.6 68 56 C 68 63.400000000000006 65 70.5 59.8 75.8 C 54.5 81 47.4 84 40 84 C 32.6 84 25.5 81 20.2 75.8 C 15 70.5 12 63.400000000000006 12 56 L 12 56 Z " fill-rule="evenodd" fill="white" stroke="none"/></mask><path d=" M 62.52671991522 27.87328008478 L 78.4 12 L 72 12 C 70.9 12 69.9 11.600000000000001 69.2 10.8 C 68.4 10.100000000000001 68 9.100000000000001 68 8 C 68 6.9 68.4 5.9 69.2 5.199999999999999 C 69.9 4.4 70.9 4 72 4 L 84 4 C 86.1 4 88.2 4.800000000000001 89.7 6.300000000000001 C 91.2 7.800000000000001 92 9.899999999999999 92 12 L 92 24 C 92 25.1 91.6 26.1 90.8 26.799999999999997 C 90.1 27.6 89.1 28 88 28 C 86.9 28 85.9 27.6 85.2 26.799999999999997 C 84.4 26.1 84 25.1 84 24 L 84 17.6 L 68.12671991522001 33.47328008478 C 73.18421608882495 39.86688765087382 76 47.82229446052211 76 56 C 76 65.5 72.2 74.7 65.5 81.5 C 58.7 88.2 49.5 92 40 92 C 30.5 92 21.3 88.2 14.5 81.5 C 7.8 74.7 4 65.5 4 56 L 4 56 C 4 46.5 7.8 37.3 14.5 30.5 C 21.3 23.8 30.5 20 40 20 C 48.17770553947789 20 56.13311234912618 22.81578391117505 62.52671991522 27.87328008478 Z  M 12 56 C 12 48.6 15 41.5 20.2 36.2 C 25.5 31 32.6 28 40 28 C 47.4 28 54.5 31 59.8 36.2 C 65 41.5 68 48.6 68 56 C 68 63.400000000000006 65 70.5 59.8 75.8 C 54.5 81 47.4 84 40 84 C 32.6 84 25.5 81 20.2 75.8 C 15 70.5 12 63.400000000000006 12 56 L 12 56 Z " fill-rule="evenodd" fill="none" stroke="none" stroke-width="16" mask="url(#_mask_ZBDwiDh4G7QezcKfhCWHMRTiABUFORGo)"/></svg>

<svg xmlns="http://www.w3.org/2000/svg" width="96" height="96"><path d="M62.527 27.873L78.4 12H72c-1.1 0-2.1-.4-2.8-1.2-.8-.7-1.2-1.7-1.2-2.8 0-1.1.4-2.1 1.2-2.8.7-.8 1.7-1.2 2.8-1.2h12c2.1 0 4.2.8 5.7 2.3C91.2 7.8 92 9.9 92 12v12c0 1.1-.4 2.1-1.2 2.8-.7.8-1.7 1.2-2.8 1.2-1.1 0-2.1-.4-2.8-1.2-.8-.7-1.2-1.7-1.2-2.8v-6.4L68.127 33.473C73.184 39.867 76 47.823 76 56c0 9.5-3.8 18.7-10.5 25.5C58.7 88.2 49.5 92 40 92s-18.7-3.8-25.5-10.5C7.8 74.7 4 65.5 4 56s3.8-18.7 10.5-25.5C21.3 23.8 30.5 20 40 20c8.178 0 16.133 2.816 22.527 7.873zM12 56c0-7.4 3-14.5 8.2-19.8C25.5 31 32.6 28 40 28s14.5 3 19.8 8.2C65 41.5 68 48.6 68 56s-3 14.5-8.2 19.8C54.5 81 47.4 84 40 84s-14.5-3-19.8-8.2C15 70.5 12 63.4 12 56z" fill-rule="evenodd" fill="#454545"/></svg>
